X: 1
T: String Quartet in G Major opus 64 no 4 mvt 3
C: Franz Joseph Haydn
%%abc-version 2.0
%%abcx-abcm2ps-target-version 5.9.1 (29 Sep 2008)
%%abc-creator hum2abc beta
%%abcx-conversion-date 2021/02/14 14:38:35
%%abc-copyright Copyright (c) 1994, 2000 Center for Computer Assisted Research in the Humanities
%%abc-edited-by Frances Bennion
%%abcx-initial-encoding-date 1997/04/15
%%gracespace 0 6 6
%%humdrum-veritas 3605194891
%%humdrum-veritas-data 2658602389
%%linebreak <none>
%%barnumbers 0
L: 1/16
M: 2/4
N: Derived from op64n4-03.krn
Q: "Adagio cantabile sostenuto"
%%staves [1 2 3 4]
V: 1
V: 2
V: 3 clef=alto
V: 4 clef=bass
K: Eb
[V:1]z6 G2 [I:setbarnb1]|
[V:2]z6 z2 |
[V:3]z6 z2 |
[V:4]z6 z2 |
[V:1]c3d/c/ =B2c2 |
[V:2]=EG,GG, FG,EG, |
[V:3]CG,=EG, DG,CG, |
[V:4]C,4 z4 |
[V:1]d2g2 =e2c2 |
[V:2]DG,FG, =EG,GG, |
[V:3]=B,G,DG, CG,=EG, |
[V:4]G,,2z2 C,2z2 |
[V:1]d2=e2 f2e2 |
[V:2]DG,=EG, FG,EG, |
[V:3]=B,G,CG, DG,CG, |
[V:4]F,2=E,2 =B,,2C,2 |
[V:1]d2=e>d d2G2 |
[V:2]D=B,G,C B,CDF |
[V:3]=B,G,C^F, G,=A,B,D |
[V:4]G,,4 z4 |
[V:1]c3d/c/ =B2c2 |
[V:2]=EG,GG, FG,EG, |
[V:3]CG,=EG, DG,CG, |
[V:4]C,,2C,2 z4 |
[V:1]d2g2 =e2c2 |
[V:2]DG,FG, =EG,GG, |
[V:3]=B,G,DG, CG,=EG, |
[V:4]G,,2z2 C,2z2 |
[V:1]d2g2 =e2=a2 |
[V:2]FG,DG, =EG,=AE |
[V:3]DG,FG, CG,C=E |
[V:4]=B,,4 C,2=A,,2 |
[V:1]g4 ^fg=a=b |
[V:2]GDGD ^FCFC |
[V:3]=B,B,B,B, C=A,C^F, |
[V:4]D,2z2 D,2z2 |
[V:1]g2z4 G2 |
[V:2]=B,2z2 >F2=ED |
[V:3]G,4 zDC=B, |
[V:4]zG,D,=B,, G,,2z2 |
[V:1]c3d/c/ =B2c2 |
[V:2]=EG,GG, FG,EG, |
[V:3]CG,=EG, DG,CG, |
[V:4]C,4 z4 |
[V:1]d/c/=B/c/d/=e/f/g/ e2dc |
[V:2]DG,FG, =EG,GG, |
[V:3]=B,G,DG, CG,=EG, |
[V:4]G,,2z2 C,2z2 |
[V:1]dd=ee g^f=fe |
[V:2]DG,=EG, FG,EG, |
[V:3]=B,G,CG, DG,CG, |
[V:4]F,2=E,2 =B,,2C,2 |
[V:1]d2=e>d d2G2 |
[V:2]D=B,G,C B,CDF |
[V:3]=B,G,C^F, G,=A,B,D |
[V:4]G,,4 z4 |
[V:1]c3d/c <=Bc<cB//c// |
[V:2]=EG,GG, FG,EG, |
[V:3]CG,=EG, DG,CG, |
[V:4]C,,2C,2 z4 |
[V:1]d/c/=B/c/d/=e/f/g/ e2dc |
[V:2]DG,FG, =EG,GG, |
[V:3]=B,G,DG, CG,=EG, |
[V:4]G,,2z2 C,2z2 |
[V:1]dggg =e=aaa |
[V:2]FG,DG, =E=A,=AC |
[V:3]DG,FG, =ECCE |
[V:4]=B,,4 C,2=A,,2 |
[V:1]g/^f/=a/g/=b/a/c'/b/ d'c'ba |
[V:2]G=B,GB, ^F=A,FA, |
[V:3]=B,GB,G =A,^FA,F |
[V:4]D,2z2 D,2z2 |
[V:1]g2z4 g2 |
[V:2]=B,2z4 =E2 |
[V:3]G2z4 B,2 |
[V:4]G,,G,D,=B,, G,,2G,,2 |
[V:1]f3g/f/ =e2=a2 |
[V:2]D=A,FA, =EA,EA, |
[V:3]=A,DDA, ^CA,C=E |
[V:4]=A,,2=A,2 z2G,,2 |
[V:1]=a2>f2 d2=e2 |
[V:2]F=A,FA, =AA,GA, |
[V:3]D=A,DA, FA,=EA, |
[V:4]F,,2F,2 z2^C,2 |
[V:1]f2g2 =e2f2 |
[V:2]F=A,FG, =EG,FA, |
[V:3]D=A,DG, CG,DD |
[V:4]D,2=B,,2 C,2F,,2 |
[V:1]=e4 d2G2 |
[V:2]=EG,EG, DG,FG, |
[V:3]CG,CG, =B,G,DG, |
[V:4]G,,2G,2 G,,2z2 |
[V:1]c3d/c/ =B2c2 |
[V:2]=EG,GG, FG,EG, |
[V:3]CG,=EG, DG,CG, |
[V:4]C,,2C,2 z4 |
[V:1]d2g2 =e2c2 |
[V:2]DG,FG, =EG,GG, |
[V:3]=B,G,DG, CG,=EG, |
[V:4]G,,2z2 C,2=E,,2 |
[V:1]c2^c2 d7/=a/ |
[V:2]G=A,GA, FA,FA, |
[V:3]=E=A,EA, DA,DA, |
[V:4]F,,8 |
[V:1]=a2=B>g g2=e3/g/ |
[V:2]FG,FG, =EG,EG, |
[V:3]D=B,DB, C=ECE |
[V:4]G,,8- |
[V:1]G2=A/G/=B/A/ c/B/d/c/=e/d/f/B/ |
[V:2]DG,DG, DG,DG, |
[V:3]CG,CG, =B,G,B,G, |
[V:4]G,,6 G,,2 |
[V:1]d4 c2g2 |
[V:2]=B,4 C2=E2 |
[V:3]F,4 =E,2B,2 |
[V:4]C,,2C,2 C,2G,,2 |
[V:1]f3g/f/ =e2=A/^c/e/=a/ |
[V:2]D=A,FA, =EA,EA, |
[V:3]=A,DDA, ^CA,C=E |
[V:4]=A,,2=A,2 z2G,,2 |
[V:1](3:2:2=a2-a//f/g/=e/d2 ed/e/|
[V:2]F=A,FG =AA,GA, |
[V:3]D=A,D=E FA,EA, |
[V:4]F,,2F,2 z2^C,2 |
[V:1]ffgg =eefe/f/ |
[V:2]F=A,FG, =EG,FA, |
[V:3]D=A,DG, CG,DD |
[V:4]D,2=B,,2 C,2F,,2 |
[V:1](3:2:2=e2-e//f/^f/g/d2 G2|
[V:2]=EG,EG, DG,FG, |
[V:3]CG,CG, =B,G,DG, |
[V:4]G,,2G,2 G,,2z2 |
[V:1]c3d/c <=Bc<cB//c// |
[V:2]=EG,GG, FG,EG, |
[V:3]CG,=EG, DG,CG, |
[V:4]C,,2C,2 z4 |
[V:1]d/c/=B/c/d/=e/f/g/ e2dc |
[V:2]DG,FG, =EG,GG, |
[V:3]=B,G,DG, CG,=EG, |
[V:4]G,,2z2 C,2=E,,2 |
[V:1]c2^c2 =e/d/f/e/g/f/=a/g/ |
[V:2]G=A,GA, FA,FA, |
[V:3]=E=A,EA, DA,DA, |
[V:4]F,,8 |
[V:1]=ag/f/=e/d/c/=B/ gf/e/d/c/e/c/ |
[V:2]FG,FG, =EG,EG, |
[V:3]D=B,DB, C=ECE |
[V:4]G,,8- |
[V:1]GA/=A/B/=B/c/^c/ d=efB |
[V:2]DG,DG, DG,DG, |
[V:3]CG,CG, =B,G,B,F, |
[V:4]G,,6 G,,2 |
[V:1]d4 c2G2 |
[V:2]=B,4 C2z2 |
[V:3]F,4 =E,2z2 |
[V:4]C,,2C,2 C,,2z2 |
[V:1]c3d/c/ =B2c2 |
[V:2]EGEG FGEG |
[V:3]CGEG DGCG |
[V:4]z8 |
[V:1]d2g2 e2c2 |
[V:2]DG=B,G CGEG |
[V:3]=B,GG,G CGEG |
[V:4]z8 |
[V:1]=B2c2 f2e2 |
[V:2]G4 d2c2 |
[V:3]FGEG =B,GCG |
[V:4]z8 |
[V:1]d2g2 ^f2=f2 |
[V:2]=B4 c2d2- |
[V:3]G,GG,G =A,G=B,G |
[V:4]z8 |
[V:1]e4 d2_d2 |
[V:2]d2c4 B2- |
[V:3]CGA^F GCG=E |
[V:4]z8 |
[V:1]c4 B3e |
[V:2]B2A4 G2 |
[V:3]FCFD EB,EC |
[V:4]z8 |
[V:1](3:2:2e4-e/BA F|
[V:2]F_G=GA G2FD |
[V:3]A,=A,B,_C B,2B,2 |
[V:4]z8 |
[V:1]EGBd ebge |
[V:2]E2B,4 B,2 |
[V:3]G,8 |
[V:4]E,8- |
[V:1]eFeF dFfD |
[V:2]_C8 |
[V:3]A,8 |
[V:4]E,8- |
[V:1]EGBd ebge |
[V:2]B,8 |
[V:3]G,8 |
[V:4]E,8- |
[V:1]eFeF dFfD |
[V:2]_C8 |
[V:3]A,8 |
[V:4]E,8- |
[V:1]EGBe gbag |
[V:2]B,EGB egfe |
[V:3]G,4 z2E2 |
[V:4]E,4 z4 |
[V:1]fagf e4 |
[V:2]dfed d2c2- |
[V:3]B2=B2 c_BAG |
[V:4]z8 |
[V:1]_d4 c4 |
[V:2]c2B4 A2- |
[V:3]FAGE AGFE |
[V:4]z8 |
[V:1]B4 A4 |
[V:2]A2G4 F2- |
[V:3]_DFEB, CEDC |
[V:4]z8 |
[V:1]G6 F2 |
[V:2]F2=E2 C2D2 |
[V:3]B,_DCB, A,4 |
[V:4]z2C,2 F,E,D,C, |
[V:1]F2E2 D2E2 |
[V:2]D2C4 C2 |
[V:3]G,4 A,G,F,^F, |
[V:4]=B,,G,,C,E,, F,,=E,,F,,^F,, |
[V:1]D6 G2 |
[V:2]C4 =B,2z2 |
[V:3]G,2z6 |
[V:4]G,,^F,,G,,A,, G,,=F,,E,,D,, |
[V:1]c3d/c/ =B2c2 |
[V:2]EGEG FGEG |
[V:3]CGEG DGCG |
[V:4]C,,2z6 |
[V:1]d2g2 e2c2 |
[V:2]DG=B,G CGEG |
[V:3]=B,GG,G CGEG |
[V:4]z8 |
[V:1]=B2c2 f2e2 |
[V:2]G4 d2c2 |
[V:3]FGEG =B,GCG |
[V:4]z8 |
[V:1]d4 _dBdB |
[V:2]=B4 _BGBG |
[V:3]G,4 z4 |
[V:4]G,DG,F, =E,_DE,D |
[V:1]BAGA ecec |
[V:2]GF=EF c=AcA |
[V:3]z8 |
[V:4]F,4 ^F,EF,E |
[V:1]=BGBd gGgG |
[V:2]G2D4 D2 |
[V:3]=B,8 |
[V:4]G,8- |
[V:1]g=AgA ^fA=a^F |
[V:2]E8 |
[V:3]C8 |
[V:4]G,8- |
[V:1]G=Bd^f gd'=bg |
[V:2]D8 |
[V:3]=B,8 |
[V:4]G,8- |
[V:1]g=AgA ^fA=a^F |
[V:2]E8 |
[V:3]C8 |
[V:4]G,8- |
[V:1]G=Bd^f gGgG |
[V:2]D2G4 G2 |
[V:3]=B,4 B,2C2 |
[V:4]G,4 G,2=A,2 |
[V:1]gG^fG =fG=eG |
[V:2]G8 |
[V:3]D4 D2=E2 |
[V:4]=B,4 B,2C2 |
[V:1]dGcG =BG=AB |
[V:2]=B2c2 d2z2 |
[V:3]F6 z2 |
[V:4]D6 z2 |
[V:1]c3d/c/ =B2c2 |
[V:2]=EG,GG, FG,EG, |
[V:3]CG,=EG, DG,CG, |
[V:4]C,4 z4 |
[V:1]d2g2 =e2c2 |
[V:2]DG,FG, =EG,GG, |
[V:3]=B,G,DG, CG,=EG, |
[V:4]G,,2z2 C,2z2 |
[V:1]d2=e2 f2e2 |
[V:2]DG,=EG, FG,EG, |
[V:3]=B,G,CG, DG,CG, |
[V:4]F,2=E,2 =B,,2C,2 |
[V:1]d2=e>d d2G2 |
[V:2]D=B,G,C B,CDF |
[V:3]=B,G,C^F, G,=A,B,D |
[V:4]G,,4 z4 |
[V:1]c3d/c/ =Bgcg |
[V:2]=EG,GG, FG,EG, |
[V:3]CG,=EG, DG,CG, |
[V:4]C,,2C,2 z4 |
[V:1]dg>=af/g/ =egec |
[V:2]DG,FG, =EG,GG, |
[V:3]=B,G,DG, CG,=EG, |
[V:4]G,,2z2 C,2z2 |
[V:1]dg/^f//g//=bg =e^g/=a/b/a/c'/a/ |
[V:2]FG,DG, =EG,=AE |
[V:3]DG,FG, CG,C=E |
[V:4]=B,,4 C,2=A,,2 |
[V:1]g3=a/g/ ^f/g/a/g/=b/a/c'/a/ |
[V:2]GDGD ^FCFC |
[V:3]=B,B,B,B, C=A,C^F, |
[V:4]D,2z2 D,2z2 |
[V:1]g2z4 g2 |
[V:2]=B,2z4 =E2 |
[V:3]G,2z4 B,2 |
[V:4]G,,G,D,=B,, G,,2G,,2 |
[V:1]f3g/f/ =e2=A/^c/e/=a/ |
[V:2]D=A,FA, =EA,EA, |
[V:3]=A,DDA, ^CA,C=E |
[V:4]=A,,2=A,2 z2G,,2 |
[V:1](3:2:2=a2-a//f/g/=e/dd zf/e/|
[V:2]F=A,FA, =AA,GA, |
[V:3]D=A,DA, FA,=EA, |
[V:4]F,,2F,2 z2^C,2 |
[V:1]zg/f/z=a/g/ f/=e/d'/c'/=b/a/g/f/ |
[V:2]F=A,FG, =EG,FA, |
[V:3]D=A,DG, CG,DD |
[V:4]D,2=B,,2 C,2F,,2 |
[V:1]=e2>_e2 d2G2 |
[V:2]=EG,EG, DG,FG, |
[V:3]CG,CG, =B,G,DG, |
[V:4]G,,2G,2 G,,2z2 |
[V:1][G,c=E]=e/g/c'/g/e/c/ =B/g/gc/g/g |
[V:2]=EG,GG, FG,EG, |
[V:3]CG,=EG, DG,CG, |
[V:4]C,,2C,2 z4 |
[V:1]dg>=af/g/ =eccc |
[V:2]DG,FG, =EG,GG, |
[V:3]=B,G,DG, CG,=EG, |
[V:4]G,,2z2 C,2=E,,2 |
[V:1]c2^c2 d/e/=e/f/^f/g/^g/=a/ |
[V:2]G=A,GA, FA,FA, |
[V:3]=E=A,EA, DA,DA, |
[V:4]F,,8 |
[V:1]=a2=B>g g2=e3/g'/ |
[V:2]FG,FG, =EG,EG, |
[V:3]D=B,DB, C=ECE |
[V:4]G,,8- |
[V:1]g'4 G,/=B,/D/F/(3G/=B/d/f/B/ |
[V:2]DG,DG, DG,DG, |
[V:3]CG,CG, =B,G,B,G, |
[V:4]G,,6 G,,2 |
[V:1]c2z6 |
[V:2]=ECGE c=B=AG |
[V:3]CG,=EC =AGFE |
[V:4]C,4 z4 |
[V:1]=b8 |
[V:2]F8 |
[V:3]D8 |
[V:4]G,/=B,/D/B,/FD/B,/ G,/=A,/F,/G,/=E,/F,/D,/E,/ |
[V:1]c'4 z4 |
[V:2]=ECGE c=B=AG |
[V:3]=EG,EC =AGFE |
[V:4]C,4 z4 |
[V:1]=B8 |
[V:2]F/G/=E/F/D/F/E/G/ F/E/F/E/F/=A/G/F/ |
[V:3]D/=E/C/D/=B,/D/C/E/ D/^C/D/C/D/F/E/D/ |
[V:4]G,,8 |
[V:1]c2z2 c2c2 |
[V:2]=E2z2 E2E2 |
[V:3]C2z2 =E,2G,2 |
[V:4]C,/=E,/G,/C/G,/E,/C,/E,/ G,,/=A,,/F,,/G,,/=E,,/F,,/D,,/E,,/ |
[V:1]c2z2 =E2z3/E/ |
[V:2]=E2z2 C2z3/C/ |
[V:3]G,2z2 G,2z3/G,/ |
[V:4]C,,2z2 C,,2z3/C,,/ |
[V:1]=E2z6 |]
[V:2]C2z6 |]
[V:3]G,2z6 |]
[V:4]C,,2z6 |]

